icons/double-quotes-r.svg

<svg xmlns="http://www.w3.org/2000/svg" width="24" height="24" fill="none"><g clip-path="url(#a)"><g><path fill="#121212" d="M19.417 6.679C20.447 7.773 21 9 21 10.989C21 14.489 18.543 17.626 14.97 19.177L14.077 17.799C17.412 15.995 18.064 13.654 18.324 12.178C17.787 12.456 17.084 12.553 16.395 12.489C14.591 12.322 13.169 10.841 13.169 9C13.169 8.07174 13.5377 7.1815 14.1941 6.52513C14.8505 5.86875 15.7407 5.5 16.669 5.5C17.742 5.5 18.768 5.99 19.417 6.679ZM9.417 6.679C10.447 7.773 11 9 11 10.989C11 14.489 8.543 17.626 4.97 19.177L4.077 17.799C7.412 15.995 8.064 13.654 8.324 12.178C7.787 12.456 7.084 12.553 6.395 12.489C4.591 12.322 3.17 10.841 3.17 9C3.17 8.07174 3.53875 7.1815 4.19512 6.52513C4.8515 5.86875 5.74174 5.5 6.67 5.5C7.743 5.5 8.769 5.99 9.418 6.679H9.417Z"/></g></g><defs><clipPath id="a"><rect width="24" height="24" fill="white"/></clipPath></defs></svg>

<svg width="24" height="24" fill="none" xmlns="http://www.w3.org/2000/svg"><g clip-path="url(#a)"><path d="M19.417 6.679C20.447 7.773 21 9 21 10.989c0 3.5-2.457 6.637-6.03 8.188l-.893-1.378c3.335-1.804 3.987-4.145 4.247-5.621-.537.278-1.24.375-1.929.311-1.804-.167-3.226-1.648-3.226-3.489a3.5 3.5 0 0 1 3.5-3.5c1.073 0 2.099.49 2.748 1.179Zm-10 0C10.447 7.773 11 9 11 10.989c0 3.5-2.457 6.637-6.03 8.188l-.893-1.378c3.335-1.804 3.987-4.145 4.247-5.621-.537.278-1.24.375-1.929.311C4.591 12.322 3.17 10.841 3.17 9a3.5 3.5 0 0 1 3.5-3.5c1.073 0 2.099.49 2.748 1.179h-.001Z" /></g><defs><clipPath id="a"><path fill="#fff" d="M0 0h24v24H0z"/></clipPath></defs></svg>
